X:1
T:Haec dicit Dominus - Webbe
T:#
%%score 1 2 { ( 3 4 ) | 5 }
L:1/8
Q:1/4=60
M:4/4
K:C
V:1 treble-8 nm="Tenor" snm="T"
V:2 bass nm="Bass" snm="B"
V:3 treble nm="Organ"
V:4 treble 
V:5 bass 
V:1
[K:Eb]"^largo""^Ecce sacerdos""^Samuel Webbe\n(1740-1816)""^Antiphon for the Common\nof a Confessor Bishop" z8 | %1
w: |
 z8 | z8 | e4 !fermata!e4 | z Bcd e2 !fermata!e2 | g2 (f/e/) (d/c/) ff (e/d/) (c/B/) | %6
w: ||Ec- ce|sa- cer- dos ma- gnus,|qui in * di\- * e- bus su\- * is *|
 (e2 (3d/e/c/) (3(B/c/)=A/ B2 !fermata!B2 | c2 Td2 e2 Bc | (G2 TF2) E4 | B2 (A/G/) (F/E/) A2 A2 | %10
w: pla\- * * * cu\- * it De- o,|et in- ven- tus est|ju\- * stus.|Ec- ce * sa\- * cer- dos,|
 f2 (e/d/) (c/B/) e2 f2 | ge cf/>e/ dBee | (ed/c/ d2- dc/=B/ c2- | c_B/=A/ B2- B_A/G/ A)c | %14
w: ec- ce * sa\- * cer- dos|ma- gnus, qui in di- e- bus su- is|pla\- * * * * * * *|* * * * * * * * cuit|
 dB e4 Td2 | (ec)Bc G2 F2 | z8 | e2 (d/c/) (B/=A/) (f2 e/d/) c/B/ |{=A} G2 e2 e2 ec | %19
w: De- o et in-|ven\- * tus est ju- stus.||Ec- ce * sa\- * cer\- * * dos *|* gnus, qui in di-|
 dd (e/d/) (c/B/) c2 cc | dBef (gf)ed | (d2 Tc2) B4 | z8 | z8 | F2 G=A B2 cd | e2 e2 d2 d2 | %26
w: e- bus su\- * is * pla- cu- it|De- o et in ven\- * tus est|ju\- * stus.|||Ec- ce sa- cer- dos, sa-|cer- dos ma- gnus,|
 f2 df (e2 c)e | dddd d2 c2 | f2 ff f2 d2 | e2 e2 e2 ee | e2 c2 d2 d2 | e2 ge ccec | %32
w: qui in di- e\- * bus|su- is pla- cuit De- o.|Ec- ce sa- cer- dos|ma- gnus, ec- ce sa-|cer- dos ma- gnus,|qui in di- e- bus su- is|
{B} A2 G2 TG2 F2 | z8 | d2 ff eegg | f2 e2 e2 d2 | F2 A2 (G2 B2) | A2 G2 !fermata!G2 F2 | %38
w: * cuit De- o,||qui in di- e- bus su- is|pla- cuit De- o,|et in ven\- *|tus est ju- stus,|
"^adagio" c2 d2 e2 Bc | (G2 TF2) E4 | z8 | z8 | z8 | z8 |] %44
w: et in- ven- tus est|ju\- * stus.|||||
V:2
[K:Eb] z8 | z8 | z8 | E,4 !fermata!E,4 | z G,A,F, E,2 !fermata!E,2 | E,2 E,E, D,D,D,D, | %6
w: |||Ec- ce|sa- cer- dos ma- gnus,|qui in di- e- bus su- is|
 C,3 C, B,,2 !fermata!B,,2 | A,2 TF,2 E,2 G,A, | (B,2 B,,2) E,4 | z4 C2 (B,/A,/) (G,/F,/) | %10
w: pla- cuit De- o,|et in- ven- tus est|ju\- * stus.|Ec- ce * sa\- *|
 D,D, z A, G,2 B,2 | E,E, A,F,/>F,/ B,A,G,G, | (F,2- F,E,/D,/ E,2- E,D,/C,/ | %13
w: cer- dos, sa- cer- dos|ma- gnus, qui in di- e- bus su- is|pla\- * * * * * * *|
 D,2- D,C,/B,,/ C,)C, A,2- | A,2 G,2 F,2 B,2 | (E,A,)G,A, B,2 B,,2 | z8 | z8 | z4 F,2 G,=A, | %19
w: * * * * * cuit De\-|* o et in-|ven\- * tus est ju- stus.|||qui in di-|
 B,B,G,G, E,2 F,F, | B,_A,G,F, (E,D,)C,B,, | F,4 B,,4 | z8 | z8 | z4 D,2 E,F, | G,2 =A,2 B,2 B,2 | %26
w: e- bus su- is pla- cu- it|De- o et in- ven\- * tus est|ju- stus.|||Ec- ce sa-|cer- dos ma- gnus,|
 D2 B,D (C2 =A,)C | B,B,B,B, B,2 =A,2 | z4 G,2 G,G, | C2 C,2 z4 | F,2 F,F, B,2 _A,2 | %31
w: qui in di- e\- * bus|su- is pla- cuit De- o.|Ec- ce sa-|cer- dos,|ec- ce sa- cer- dos|
 G,2 E,G, A,A,A,A, | F,2 E,2 TE,2 D,2 | z8 | F,2 A,A, G,G,B,B, | A,2 G,2 G,2 F,2 | %36
w: qui in di- e- bus su- is|pla- cuit De- o,||qui in di- e- bus su- is|pla- cuit De- o,|
 D,2 F,2 (E,2 G,2) | F,2 E,2 !fermata!E,2 D,2 | A,2 F,2 E,2 G,A, | (B,2 B,,2) E,4 | z8 | z8 | z8 | %43
w: et in ven\- *|tus est ju- stus,|et in- ven- tus est|ju\- * stus.||||
 z8 |] %44
w: |
V:3
[K:Eb] E2 Be- ed/c/ d2- | dc/=B/ c2- c_B/=A/ B2- | Becf f e2 Td | !fermata![EGe]8 | x8 | x8 | %6
 [ce]4 x4 | x8 | x8 | [EGB]4 [EAc]4 | [Bdf]3 [Bdf] [Be]2 [Bdf]2 | [eg]ecf dB e2- | %12
 ed/c/ d2- dc/=B/ c2- | c_B/=A/ B2- B_A/G/ Ac | dB e4 d2 | ecBc G2 Fb | x8 | x8 | x8 | d2 e2 c4 | %20
 dBef gfed | [Bd]2 [=Ac]2 B2 z g | f2 e2 [Bd]2 [Gc]2 | [Fd]2 [Ec]2 [DB]4 | F2 G=A [DB]2 [Ec][Fd] | %25
 [Ge]2 [=Ae]2 [Bd]2 [Bd]2 | [df]2 [Bd][df] [ce]2 [=Ac][ce] | [Bd] [Bd]2 [Bd] [Bd]2 [=Ac]2 | %28
 f2 f2 [G=Bdf]4 | [Gce]2 [Gce]>d [ce]2 [ce]2 | [F=Ace]4 [FBd]2 [FBd]2 | %31
 [EGBe]2 [EGBe]2 [EAc]2 [EAc]2 |{B} [FA]2 [EG]2 [EG]2 [DF][gb] | [fa]2 [eg]2 T[eg]2 [df]2 | %34
 [Fd]2 [Af]2 [Ge]2 [Bg]2 | [Af]2 [Ge]2 [Ge]2 [Fd]2 | [DF]2 [FA]2 [EG]2 [GB]2 | %37
 [FA]2 [EG]2 !fermata![EG]2 [DF]2 | [EAc]2 [FAd]2 [Ge]2 [EGB][Ac] | %39
 [EG]2 [A,DF]2 [G,E]2 z !turn!B |"^a tempo" e3 _d c2 z !turn!c | f3 e d2 z !turn!B | %42
 e/eeee/- e/eeee/- | e2 Td2 e4 |] %44
V:4
[K:Eb] x4 F3 F | E3 E D3 D | EG A2 G2 F2 | x8 | z [GB][Ac][Ad] [Ge]2 !fermata![Ge]2 | %5
 [Beg]4 [FBf]4 | G2 =A2 !fermata![Bd]4 | [EAc]2 [FAd]2 [GBe]2 [GB][EAc] | [EG]2 [A,DF]2 [G,E]2 z2 | %9
 x8 | x8 | BG A2 F2 EG | F2- FE/D/ E2- ED/C/ | D2- DC/B,/ C2 A2 | B2 B2 A4 | GA E4 D x | %16
 [eg][gb][fa][eg] T[eg]2 [df]2 | [GBe]2 d/c/B/=A/ [Bdf]2 e/ d/ c/ B/ | %18
{=A} G2 [Ge]2 [Ae]2 [GBe][!courtesy!=Ac] | B6 =A2 | B2 B4 =AB | x8 | z FG=A x4 | x8 | x8 | x8 | %26
 x8 | x8 | x8 | x8 | x8 | x8 | x8 | x8 | x8 | x8 | x8 | x8 | x8 | x8 | z GAB A2 z2 | z =ABc B2 z2 | %42
 G/GGGG/- G/GGGG/- | G2 FA G4 |] %44
V:5
[K:Eb] E,F,G,E, B,B, z B, | G,E,C,A, F,D,B,,B, | G,E,A,F, B,2 B,,2 | E,4 !fermata![E,,E,]4 | %4
 E,E,A,F, E,2 !fermata!E,,2 | E,4 D,4 | C,4 !fermata!B,,4 | A,2 F,2 E,2 E,A, | %8
 B,2 B,,2 E,B,,E,, z | E,4 E,4 | D,2 B,A, G,2 B,2 | E,2 A,F, B,A,G,E, | B,,4 C,4 | G,,4 A,,2 A,2- | %14
 A,2 G,2 F,2 B,,2 | E,A,G,A, B,2 B,,2 | B,,B,B,,B, B,,B,B,,B, | E,2 z F, D,2 z D, | E,2 E,2 F,4 | %19
 B,,2 G,2 E,2 F,2 | B,_A,G,F, E,D,C,B,, | F,4 B,,2 z E, | D,2 C,2 B,2 E,2 | F,2 F,,2 B,,4 | %24
 B,,B,B,,B, B,,B,B,,B, | B,,B,B,,B, B,,2 B,,2 | B,,2 B,,2 F,2 F,2 | B,2 =E,2 F,2 F,,2 | %28
 z4 [G,,G,]4 | [C,,C,]4 z4 | [F,,F,]4 [B,,B,]2 _A,2 | G,2 E,2 A,2 A,2 | D,2 E,2 B,2 B,,2 | %33
 D,2 TE,3/2D,/4E,/4 B,,4 | B,,B,B,,B, B,,B,B,,B, | B,,B,B,,B, B,,B,B,,B, | B,,B,B,,B, B,,B,B,,B, | %37
 B,,B,B,,B, !fermata!B,,2 B,,2 |"^adagio" A,2 F,2 E,2 E,A,, | B,,4 E,,4 | z E,F,G, A,E,A,, z | %41
 z F,G,=A, B,F,B,, z | z E,G,E, C,E,C,=A,, | B,,2 B,,2 E,4 |] %44

